src/svg-icons/logo.svg

<svg width="94" height="18" viewBox="0 0 94 18" fill="none" xmlns="http://www.w3.org/2000/svg">
<path d="M10.9672 16.7217V13.8232H3.29944V10.3217H10.8045V7.42319H3.29944V4.15362H10.9672V1.25507H0V16.7217H10.9672Z" fill="#000B26" fill-opacity="0.72"/>
<path d="M21.0515 17C24.4672 17 26.4189 15.1217 27.5342 13.1971L24.6995 11.829C24.0489 13.1043 22.6548 14.0783 21.0515 14.0783C18.24 14.0783 16.1953 11.9217 16.1953 9C16.1953 6.07826 18.24 3.92174 21.0515 3.92174C22.6548 3.92174 24.0489 4.91884 24.6995 6.17101L27.5342 4.77971C26.4422 2.85507 24.4672 1 21.0515 1C16.4044 1 12.8029 4.24638 12.8029 9C12.8029 13.7536 16.4044 17 21.0515 17Z" fill="#000B26" fill-opacity="0.72"/>
<g clip-path="url(#clip0_16_5785)">
<path d="M32.5421 13.1004C32.5421 13.1004 33.8039 16.8843 38.5342 18.0001V16.5937C43.3575 16.5937 47.2675 13.5561 47.2675 8.73321C47.2675 3.91037 43.3575 0 38.5342 0C33.7116 0 29.801 3.91037 29.801 8.73321C29.801 9.16482 29.8334 9.58853 29.8934 10.0032C30.4693 6.30502 33.6744 3.41975 38.3158 2.50143C38.3532 2.0152 38.3907 1.52759 38.4337 0.97294C42.2236 1.65606 44.3561 5.66996 44.3561 5.66996C44.3561 5.66996 42.5124 9.00009 38.5907 10.2123L38.5976 8.27855C34.0518 9.73452 32.5421 13.1004 32.5421 13.1004Z" fill="url(#paint0_linear_16_5785)"/>
</g>
<path d="M62.0813 16.71L58.596 10.8202C60.269 10.426 61.9884 8.9651 61.9884 6.22887C61.9884 3.3535 60.0134 1.24336 56.7837 1.24336H49.5342V16.71H52.8336V11.2144H55.2501L58.294 16.71H62.0813ZM56.2957 8.31582H52.8336V4.14191H56.2957C57.6201 4.14191 58.6193 4.93032 58.6193 6.22887C58.6193 7.52742 57.6201 8.31582 56.2957 8.31582Z" fill="#000B26" fill-opacity="0.72"/>
<path d="M71.4587 16.9883C76.1755 16.9883 78.4526 14.368 78.4526 10.5187V1.24336H75.0834V10.426C75.0834 12.5825 73.8519 14.0665 71.4587 14.0665C69.0654 14.0665 67.8107 12.5825 67.8107 10.426V1.24336H64.4648V10.5419C64.4648 14.3448 66.7419 16.9883 71.4587 16.9883Z" fill="#000B26" fill-opacity="0.72"/>
<path d="M87.0125 16.9883C91.1949 16.9883 93.2164 14.855 93.2164 12.026C93.2164 6.25205 84.3172 7.89843 84.3172 5.44046C84.3172 4.51292 85.1072 3.88684 86.5245 3.88684C88.1046 3.88684 89.7775 4.42017 91.0322 5.57959L92.8678 3.168C91.3343 1.7535 89.2896 1.01147 86.8266 1.01147C83.1786 1.01147 80.948 3.14481 80.948 5.71872C80.948 11.539 89.8705 9.66075 89.8705 12.397C89.8705 13.2781 88.9875 14.1129 87.1751 14.1129C85.0375 14.1129 83.3413 13.1622 82.2492 12.026L80.4601 14.5303C81.9007 15.9912 84.0383 16.9883 87.0125 16.9883Z" fill="#000B26" fill-opacity="0.72"/>
<defs>
<linearGradient id="paint0_linear_16_5785" x1="29.5342" y1="-2.8125" x2="43.0343" y2="20.5" gradientUnits="userSpaceOnUse">
<stop stop-color="#00D5C7"/>
<stop offset="1" stop-color="#FFEE57"/>
</linearGradient>
<clipPath id="clip0_16_5785">
<rect width="18" height="18" fill="white" transform="translate(29.5342)"/>
</clipPath>
</defs>
</svg>

<svg width="94" height="18" fill="none" xmlns="http://www.w3.org/2000/svg">
    <path d="M10.967 16.722v-2.899H3.3v-3.501h7.506V7.423H3.299v-3.27h7.668V1.256H0v15.467h10.967ZM21.052 17c3.415 0 5.367-1.878 6.482-3.803L24.7 11.83c-.651 1.275-2.045 2.25-3.648 2.25-2.812 0-4.857-2.157-4.857-5.079 0-2.922 2.045-5.078 4.857-5.078 1.603 0 2.997.997 3.648 2.249l2.834-1.391C26.442 2.855 24.467 1 21.052 1c-4.648 0-8.25 3.246-8.25 8s3.602 8 8.25 8Z"
          fill="#000B26" fill-opacity=".72"/>
    <g clip-path="url(#a)">
        <path d="M32.542 13.1s1.262 3.784 5.992 4.9v-1.406c4.824 0 8.733-3.038 8.733-7.86a8.733 8.733 0 1 0-17.374 1.27c.576-3.699 3.781-6.584 8.423-7.503l.118-1.528c3.79.683 5.922 4.697 5.922 4.697S42.512 9 38.591 10.212l.007-1.933c-4.546 1.456-6.056 4.821-6.056 4.821Z"
              fill="url(#b)"/>
    </g>
    <path d="m62.081 16.71-3.485-5.89c1.673-.394 3.392-1.855 3.392-4.591 0-2.876-1.975-4.986-5.204-4.986h-7.25V16.71h3.3v-5.496h2.416l3.044 5.496h3.787Zm-5.785-8.394h-3.462V4.142h3.462c1.324 0 2.323.788 2.323 2.087 0 1.298-.999 2.087-2.323 2.087ZM71.459 16.988c4.716 0 6.994-2.62 6.994-6.47V1.244h-3.37v9.183c0 2.156-1.231 3.64-3.624 3.64-2.394 0-3.648-1.484-3.648-3.64V1.243h-3.346v9.299c0 3.803 2.277 6.446 6.994 6.446ZM87.013 16.988c4.182 0 6.203-2.133 6.203-4.962 0-5.774-8.899-4.128-8.899-6.586 0-.927.79-1.553 2.208-1.553 1.58 0 3.252.533 4.507 1.693l1.836-2.412c-1.534-1.415-3.578-2.157-6.041-2.157-3.648 0-5.879 2.134-5.879 4.708 0 5.82 8.923 3.942 8.923 6.678 0 .881-.883 1.716-2.696 1.716a6.802 6.802 0 0 1-4.926-2.087L80.46 14.53c1.44 1.461 3.578 2.458 6.553 2.458Z"
          fill="#000B26" fill-opacity=".72"/>
    <defs>
        <linearGradient id="b" x1="29.534" y1="-2.813" x2="43.034" y2="20.5" gradientUnits="userSpaceOnUse">
            <stop stop-color="#00D5C7"/>
            <stop offset="1" stop-color="#FFEE57"/>
        </linearGradient>
        <clipPath id="a">
            <path fill="#fff" transform="translate(29.534)" d="M0 0h18v18H0z"/>
        </clipPath>
    </defs>
</svg>
